public/illustration/logofotter.svg

<svg width="304" height="87" viewBox="0 0 304 87" fill="none" xmlns="http://www.w3.org/2000/svg">
<path d="M13.2 18.7124L57.4896 15.8496C58.2489 15.801 58.9963 16.0561 59.5676 16.5586C60.1388 17.0612 60.4869 17.77 60.5355 18.5293C60.5841 19.2885 60.329 20.036 59.8265 20.6072C59.3239 21.1784 58.6151 21.5266 57.8558 21.5751C57.2233 21.6195 13.7769 18.7124 13.2 18.7124Z" fill="#FB0021"/>
<path d="M0 51.3477L44.2897 48.4794C45.0317 48.461 45.7521 48.7305 46.3 49.2314C46.8478 49.7322 47.1806 50.4256 47.2286 51.1664C47.2767 51.9071 47.0363 52.6377 46.5577 53.2051C46.0792 53.7726 45.3996 54.1328 44.6614 54.2105C44.0234 54.2549 0.5548 51.3477 0 51.3477Z" fill="#FB0021"/>
<path d="M17.0134 34.3971L51.1392 31.5287C51.9014 31.4677 52.6566 31.7119 53.2387 32.2077C53.8209 32.7035 54.1822 33.4102 54.2433 34.1724C54.3043 34.9346 54.0601 35.6898 53.5644 36.2719C53.0686 36.8541 52.3619 37.2154 51.5997 37.2765C51.439 37.2876 51.2777 37.2876 51.117 37.2765L17.0134 34.3971Z" fill="#FB0021"/>
<path d="M105.701 31.0983C103.632 33.2422 101.014 34.7774 98.1331 35.5367C100.599 36.0475 102.806 37.4132 104.363 39.3926C105.864 41.3749 106.647 43.8086 106.583 46.2943C106.58 47.1612 106.502 48.0262 106.35 48.8797C106.035 51.0801 105.277 53.1936 104.12 55.0916C102.963 56.9896 101.432 58.6325 99.6199 59.9202C95.9213 62.5832 91.113 63.9166 85.1951 63.9203H57.8213L67.6246 8.62891H94.133C99.1483 8.62891 103.043 9.63494 105.817 11.647C108.591 13.6591 109.976 16.5219 109.972 20.2353C109.971 21.1648 109.893 22.0926 109.739 23.0093C109.249 26.0543 107.84 28.8767 105.701 31.0983ZM91.1481 45.5675C91.1851 45.0003 91.0896 44.4324 90.8691 43.9085C90.6486 43.3847 90.3091 42.9193 89.8776 42.5494C89.0177 41.8392 87.7472 41.4897 86.0773 41.4897H77.2005L75.4528 51.5982H84.3962C88.2132 51.5982 90.4324 49.9523 91.0538 46.6604C91.1206 46.3 91.1522 45.934 91.1481 45.5675ZM93.5837 24.6293C93.5837 22.1142 91.9359 20.8585 88.6404 20.8622H80.8732L79.1478 30.6656H86.915C90.732 30.6656 92.9272 29.0455 93.5005 25.8055C93.5659 25.417 93.5938 25.0232 93.5837 24.6293Z" fill="#FB0021"/>
<path d="M130.514 19.918L122.747 63.9192H107.301L115.146 19.918H130.514ZM117.931 14.0371C117.261 13.4745 116.727 12.7686 116.367 11.9715C116.006 11.1745 115.83 10.3067 115.85 9.43228C115.845 7.77695 116.321 6.15573 117.221 4.76641C118.157 3.31011 119.455 2.12123 120.988 1.31556C122.639 0.432257 124.486 -0.0200055 126.358 0.000678919C128.766 0.000678919 130.66 0.614658 132.04 1.84262C132.715 2.43034 133.253 3.1606 133.612 3.98083C133.972 4.80107 134.145 5.69086 134.12 6.58616C134.129 8.23057 133.65 9.84066 132.744 11.2132C131.8 12.6556 130.488 13.82 128.944 14.5864C127.292 15.4299 125.461 15.8602 123.607 15.8402C121.21 15.8402 119.318 15.2392 117.931 14.0371Z" fill="#FB0021"/>
<path d="M156.395 21.1758C158.908 19.946 161.675 19.3263 164.473 19.3671C169.074 19.3671 172.773 20.8836 175.569 23.9165C178.365 26.9494 179.759 31.1067 179.752 36.3884C179.736 38.2268 179.579 40.0612 179.28 41.8754C178.558 46.1237 176.991 50.1837 174.67 53.8147C172.621 57.0437 169.841 59.7446 166.553 61.6984C163.532 63.4988 160.084 64.4567 156.567 64.4724C153.586 64.4724 151.117 63.8695 149.16 62.6637C147.26 61.5325 145.763 59.8323 144.883 57.8037L140.1 84.9389H124.71L136.161 19.9164H151.535L150.425 26.0192C152.019 23.9698 154.061 22.3129 156.395 21.1758ZM163.846 39.6062C163.846 37.4573 163.232 35.7929 162.004 34.613C161.374 34.0098 160.63 33.5394 159.815 33.2296C159 32.9199 158.131 32.7771 157.26 32.8099C154.976 32.8217 152.779 33.6886 151.102 35.24C149.185 36.9744 147.948 39.3344 147.612 41.8976C147.462 42.6279 147.384 43.3712 147.379 44.1168C147.379 46.3138 147.993 48.0262 149.221 49.2542C149.849 49.8592 150.593 50.3297 151.409 50.6369C152.224 50.944 153.094 51.0814 153.965 51.0407C156.27 51.0403 158.488 50.1568 160.162 48.5718C162.053 46.8024 163.273 44.432 163.613 41.8643C163.764 41.121 163.842 40.3647 163.846 39.6062Z" fill="#FB0021"/>
<path d="M229.094 33.1081C227.024 35.2533 224.404 36.7887 221.521 37.5465C223.99 38.0487 226.2 39.4112 227.757 41.3912C229.258 43.3736 230.041 45.8073 229.976 48.293C229.973 49.1599 229.896 50.0249 229.743 50.8783C229.432 53.0786 228.677 55.1926 227.523 57.0916C226.368 58.9907 224.84 60.6349 223.03 61.9244C219.331 64.5948 214.523 65.9282 208.605 65.9245H181.215L191.018 10.6387H217.527C222.542 10.6387 226.437 11.6447 229.211 13.6568C231.985 15.6689 233.37 18.5316 233.366 22.2451C233.363 23.1653 233.285 24.0838 233.133 24.9914C232.648 28.0462 231.238 30.879 229.094 33.1081ZM214.542 47.5773C214.576 47.0075 214.476 46.4377 214.252 45.9129C214.028 45.3881 213.684 44.9228 213.249 44.5536C212.389 43.849 211.119 43.4995 209.449 43.4995H200.572L198.846 53.6135H207.79C211.607 53.6135 213.826 51.9676 214.447 48.6758C214.514 48.3135 214.546 47.9456 214.542 47.5773ZM216.977 26.6336C216.977 24.1259 215.329 22.872 212.034 22.872H204.267L202.541 32.6753H210.309C214.126 32.6753 216.321 31.0535 216.894 27.8097C216.96 27.4213 216.988 27.0274 216.977 26.6336Z" fill="#FDC300"/>
<path d="M253.908 21.9279L246.141 65.9235H230.696L238.563 21.9279H253.908ZM241.337 16.047C240.665 15.4813 240.129 14.7716 239.769 13.9706C239.409 13.1697 239.234 12.2979 239.256 11.42C239.25 9.76465 239.726 8.14343 240.626 6.75411C241.564 5.30942 242.857 4.13051 244.382 3.331C246.035 2.45541 247.883 2.0108 249.753 2.03831C252.161 2.03831 254.056 2.65229 255.44 3.88025C256.116 4.46797 256.653 5.19823 257.012 6.01847C257.372 6.8387 257.546 7.72849 257.52 8.62379C257.529 10.2682 257.05 11.8783 256.144 13.2508C255.198 14.6918 253.887 15.8558 252.344 16.624C250.692 17.4675 248.861 17.8978 247.007 17.8779C244.606 17.8594 242.716 17.2491 241.337 16.047Z" fill="#FDC300"/>
<path d="M279.789 23.1799C282.304 21.9546 285.071 21.337 287.867 21.3768C292.465 21.3768 296.163 22.8933 298.963 25.9262C301.763 28.9591 303.163 33.1164 303.163 38.3981C303.147 40.2365 302.99 42.0709 302.692 43.8851C301.967 48.1423 300.394 52.2103 298.064 55.8465C296.016 59.0756 293.235 61.7765 289.948 63.7303C286.923 65.5193 283.475 66.4656 279.961 66.471C276.984 66.471 274.515 65.8699 272.555 64.6679C270.654 63.5367 269.158 61.8364 268.277 59.8078L263.495 86.9431H248.105L259.556 21.9261H274.929L273.82 28.0289C275.413 25.9779 277.455 24.3191 279.789 23.1799ZM287.24 41.6104C287.24 39.4688 286.626 37.8044 285.398 36.6172C284.769 36.014 284.025 35.5435 283.21 35.2338C282.395 34.924 281.526 34.7813 280.655 34.8141C278.371 34.8258 276.173 35.6928 274.497 37.2441C272.579 38.9776 271.341 41.3381 271.007 43.9017C270.857 44.632 270.779 45.3753 270.774 46.1209C270.774 48.3179 271.388 50.0304 272.616 51.2583C273.239 51.8733 273.981 52.354 274.797 52.6708C275.613 52.9876 276.485 53.1338 277.359 53.1003C279.665 53.0988 281.882 52.2155 283.556 50.6314C285.448 48.8621 286.668 46.4916 287.007 43.9239C287.162 43.1624 287.24 42.3874 287.24 41.6104Z" fill="#FDC300"/>
</svg>

<svg xmlns="http://www.w3.org/2000/svg" width="304" height="87" fill="none" viewBox="0 0 304 87"><path fill="#fb0021" d="m13.2 18.712 44.29-2.862a2.869 2.869 0 0 1 .366 5.725c-.633.044-44.08-2.863-44.656-2.863M0 51.348l44.29-2.869a2.874 2.874 0 0 1 .371 5.732C44.023 54.255.555 51.348 0 51.348m17.013-16.951L51.14 31.53a2.883 2.883 0 1 1-.022 5.747zm88.688-3.299a16.3 16.3 0 0 1-7.568 4.439 10.68 10.68 0 0 1 6.23 3.856 10.97 10.97 0 0 1 2.22 6.901 15 15 0 0 1-.233 2.586 16.4 16.4 0 0 1-6.73 11.04q-5.548 3.995-14.425 4H57.821l9.804-55.29h26.508q7.523 0 11.684 3.018t4.155 8.588c-.001.93-.079 1.858-.233 2.774a15.13 15.13 0 0 1-4.038 8.09M91.148 45.57a3.66 3.66 0 0 0-1.27-3.019c-.86-.71-2.13-1.06-3.8-1.06H77.2L75.453 51.6h8.943q5.725 0 6.658-4.939a5.7 5.7 0 0 0 .094-1.092m2.436-20.939q0-3.772-4.944-3.767h-7.767l-1.725 9.804h7.767q5.725 0 6.585-4.86.099-.585.084-1.177m36.93-4.712-7.767 44.001h-15.446l7.845-44.001zm-12.583-5.88a5.83 5.83 0 0 1-2.081-4.605 8.53 8.53 0 0 1 1.371-4.667 10 10 0 0 1 3.767-3.45A11.1 11.1 0 0 1 126.358 0q3.612 0 5.682 1.842a6.06 6.06 0 0 1 2.08 4.743 8.3 8.3 0 0 1-1.376 4.627 9.7 9.7 0 0 1-3.8 3.373 11.46 11.46 0 0 1-5.337 1.254q-3.595 0-5.676-1.803m38.464 7.14a17.8 17.8 0 0 1 8.078-1.809q6.902 0 11.096 4.55t4.183 12.471a36 36 0 0 1-.472 5.487 32.2 32.2 0 0 1-4.61 11.94 24.34 24.34 0 0 1-8.117 7.883 19.7 19.7 0 0 1-9.986 2.774q-4.471 0-7.407-1.808a10.54 10.54 0 0 1-4.277-4.86L140.1 84.939h-15.39l11.451-65.023h15.374l-1.11 6.103a17 17 0 0 1 5.97-4.843m7.451 18.43q0-3.223-1.842-4.993a6.5 6.5 0 0 0-4.744-1.803 9.14 9.14 0 0 0-6.158 2.43 10.9 10.9 0 0 0-3.49 6.658 11.4 11.4 0 0 0-.233 2.219q0 3.296 1.842 5.137a6.4 6.4 0 0 0 4.744 1.787 9.02 9.02 0 0 0 6.197-2.47 11.2 11.2 0 0 0 3.451-6.707c.151-.743.229-1.5.233-2.258"/><path fill="#fdc300" d="M229.094 33.108a16.27 16.27 0 0 1-7.573 4.439 10.63 10.63 0 0 1 6.236 3.844 10.96 10.96 0 0 1 2.219 6.902c-.003.867-.08 1.732-.233 2.585a16.38 16.38 0 0 1-6.713 11.046q-5.548 4.005-14.425 4h-27.39l9.803-55.285h26.509q7.523 0 11.684 3.018t4.155 8.588c-.003.92-.081 1.839-.233 2.746a15.13 15.13 0 0 1-4.039 8.117m-14.552 14.47a3.68 3.68 0 0 0-1.293-3.024c-.86-.705-2.13-1.055-3.8-1.055h-8.877l-1.726 10.115h8.944q5.726 0 6.657-4.938a5.7 5.7 0 0 0 .095-1.099m2.435-20.944q0-3.762-4.943-3.762h-7.767l-1.726 9.803h7.768q5.726 0 6.585-4.865.1-.585.083-1.176m36.931-4.705-7.767 43.996h-15.445l7.867-43.996zm-12.571-5.881a5.85 5.85 0 0 1-2.081-4.627 8.53 8.53 0 0 1 1.37-4.666 10.03 10.03 0 0 1 3.756-3.423 11.1 11.1 0 0 1 5.371-1.293q3.611 0 5.687 1.842a6.05 6.05 0 0 1 1.572 2.138c.36.82.534 1.71.508 2.606a8.3 8.3 0 0 1-1.376 4.627 9.74 9.74 0 0 1-3.8 3.373 11.5 11.5 0 0 1-5.337 1.254q-3.601-.028-5.67-1.831m38.452 7.133a17.86 17.86 0 0 1 8.078-1.803q6.897 0 11.096 4.55 4.2 4.549 4.2 12.471a36 36 0 0 1-.471 5.487 32.2 32.2 0 0 1-4.628 11.962 24.3 24.3 0 0 1-8.116 7.883 19.7 19.7 0 0 1-9.987 2.741q-4.466 0-7.406-1.803a10.54 10.54 0 0 1-4.278-4.86l-4.782 27.135h-15.39l11.451-65.017h15.373l-1.109 6.103a17 17 0 0 1 5.969-4.85m7.451 18.43q0-3.212-1.842-4.993a6.5 6.5 0 0 0-4.743-1.803 9.14 9.14 0 0 0-6.158 2.43 10.87 10.87 0 0 0-3.49 6.658 11.4 11.4 0 0 0-.233 2.219q0 3.296 1.842 5.137a6.4 6.4 0 0 0 4.743 1.842 9.02 9.02 0 0 0 6.197-2.469 11.2 11.2 0 0 0 3.451-6.707c.155-.762.233-1.537.233-2.314"/></svg>
